recipes/jira/icon.svg

<svg clip-rule="evenodd" fill-rule="evenodd" stroke-linejoin="round" stroke-miterlimit="2" viewBox="0 0 1024 1024" xmlns="http://www.w3.org/2000/svg"><g fill-rule="nonzero" transform="matrix(21.2292 0 0 21.2292 2.74535 2)"><path d="m24.001 31.838-7.838-7.838 7.838-7.838v-16.162l-22.384 22.384c-.887.887-.887 2.345 0 3.232l22.384 22.384s3.428-2.286 3.428-8c-.177-3.032-1.388-5.913-3.428-8.162z" fill="#2684ff"/><path d="m17.387 22.477.15.149 6.464-6.464v-16.162l-12.116 12.114c.911 3.87 2.806 7.44 5.502 10.363z" fill="#1d78f2"/><path d="m19.041 20.897.114.114 4.848-4.848v-16.163l-10.135 10.133c.635 4.016 2.434 7.759 5.173 10.764z" fill="#126ae5"/><path d="m24.001 16.162v-16.162l-8 8c.175 4.245 1.867 8.289 4.766 11.394z" fill="#0b60da"/><path d="m18.286 8c0 5.424 3.894 9.567 4.097 9.778l1.618-1.616v-16.162l-5.511 5.511c-.137.822-.205 1.655-.204 2.489z" fill="#0154ce"/><path d="m24.001 16.162 7.836 7.838-7.836 7.838v16.162l22.382-22.384c.887-.887.887-2.345 0-3.232l-22.382-22.384s-3.429 2.286-3.429 8c.177 3.032 1.388 5.913 3.429 8.162z" fill="#2482fd"/><path d="m30.613 25.523-.15-.149-6.462 6.464v16.162l12.114-12.114c-.911-3.87-2.806-7.44-5.502-10.363z" fill="#1d78f2"/><path d="m28.959 27.103-.114-.114-4.847 4.848v16.163l10.133-10.133c-.636-4.015-2.434-7.758-5.172-10.764z" fill="#126ae5"/><path d="m24.001 31.838v16.162l8-8c-.176-4.245-1.868-8.29-4.768-11.394z" fill="#0b60da"/><path d="m29.715 40c0-5.424-3.894-9.567-4.098-9.778l-1.616 1.616v16.162l5.51-5.511c.137-.823.205-1.655.204-2.489z" fill="#0154ce"/><path d="m24.001 31.838-7.838-7.838h-12.734v3.429l20.572 20.571s3.428-2.286 3.428-8c-.177-3.032-1.388-5.913-3.428-8.162z" fill="#2684ff"/></g></svg>

<?xml version="1.0" encoding="UTF-8" standalone="no"?>
<!DOCTYPE svg PUBLIC "-//W3C//DTD SVG 1.1//EN" "http://www.w3.org/Graphics/SVG/1.1/DTD/svg11.dtd">
<svg width="100%" height="100%" viewBox="0 0 1024 1024" version="1.1" xmlns="http://www.w3.org/2000/svg" xmlns:xlink="http://www.w3.org/1999/xlink" xml:space="preserve" xmlns:serif="http://www.serif.com/" style="fill-rule:evenodd;clip-rule:evenodd;stroke-linejoin:round;stroke-miterlimit:2;">
    <g transform="matrix(21.2292,0,0,21.2292,2.74535,2)">
        <path d="M24.001,31.838L16.163,24L24.001,16.162L24.001,0L1.617,22.384C0.73,23.271 0.73,24.729 1.617,25.616L24.001,48C24.001,48 27.429,45.714 27.429,40C27.252,36.968 26.041,34.087 24.001,31.838Z" style="fill:rgb(38,132,255);fill-rule:nonzero;"/>
        <path d="M17.387,22.477L17.537,22.626L24.001,16.162L24.001,0L11.885,12.114C12.796,15.984 14.691,19.554 17.387,22.477Z" style="fill:rgb(29,120,242);fill-rule:nonzero;"/>
        <path d="M19.041,20.897L19.155,21.011L24.003,16.163L24.003,0L13.868,10.133C14.503,14.149 16.302,17.892 19.041,20.897Z" style="fill:rgb(18,106,229);fill-rule:nonzero;"/>
        <path d="M24.001,16.162L24.001,0L16.001,8C16.176,12.245 17.868,16.289 20.767,19.394L24.001,16.162Z" style="fill:rgb(11,96,218);fill-rule:nonzero;"/>
        <path d="M18.286,8C18.286,13.424 22.18,17.567 22.383,17.778L24.001,16.162L24.001,0L18.49,5.511C18.353,6.333 18.285,7.166 18.286,8Z" style="fill:rgb(1,84,206);fill-rule:nonzero;"/>
        <path d="M24.001,16.162L31.837,24L24.001,31.838L24.001,48L46.383,25.616C47.27,24.729 47.27,23.271 46.383,22.384L24.001,0C24.001,0 20.572,2.286 20.572,8C20.749,11.032 21.96,13.913 24.001,16.162Z" style="fill:rgb(36,130,253);fill-rule:nonzero;"/>
        <path d="M30.613,25.523L30.463,25.374L24.001,31.838L24.001,48L36.115,35.886C35.204,32.016 33.309,28.446 30.613,25.523Z" style="fill:rgb(29,120,242);fill-rule:nonzero;"/>
        <path d="M28.959,27.103L28.845,26.989L23.998,31.837L23.998,48L34.131,37.867C33.495,33.852 31.697,30.109 28.959,27.103Z" style="fill:rgb(18,106,229);fill-rule:nonzero;"/>
        <path d="M24.001,31.838L24.001,48L32.001,40C31.825,35.755 30.133,31.71 27.233,28.606L24.001,31.838Z" style="fill:rgb(11,96,218);fill-rule:nonzero;"/>
        <path d="M29.715,40C29.715,34.576 25.821,30.433 25.617,30.222L24.001,31.838L24.001,48L29.511,42.489C29.648,41.666 29.716,40.834 29.715,40Z" style="fill:rgb(1,84,206);fill-rule:nonzero;"/>
        <path d="M24.001,31.838L16.163,24L3.429,24L3.429,27.429L24.001,48C24.001,48 27.429,45.714 27.429,40C27.252,36.968 26.041,34.087 24.001,31.838Z" style="fill:rgb(38,132,255);fill-rule:nonzero;"/>
    </g>
</svg>
